X:7759
T:Unitarian, The
O:england
M:C|
L:1/8
C:Larry Mallette
R:reel
H:I first played this reel at a session in Webster, TX (near
H:NASA) at the Universalist Unitarian Church, a nice, if sober,
H:setting for the rotating Galveston session. A couple of weeks
H:later I played it at the Grey Eagle concert at Swannanoa.
K:G
Bd|e2ge f~B3|gfeg f2ed|ABde ~f3d|egfe dBAB|\
e~B3 g~B3|f~A3 G3A|BedB AcBA|AGFG E2:|
|:de|g2bg a~f3|g2af e3d|efgf edBA|BAB/c/d e3f|\
g2bg a~f3|g2df e3d|B2dB AcBA|AGFG E2:|


